dist/svg/icons/broadcast.svg

<svg height="16" width="16" xmlns="http://www.w3.org/2000/svg" viewBox="0 0 16 16">
  <path d="M9 9h-1c0.55 0 1-0.45 1-1v-1c0-0.55-0.45-1-1-1h-1c-0.55 0-1 0.45-1 1v1c0 0.55 0.45 1 1 1h-1c-0.55 0-1 0.45-1 1v2h1v3c0 0.55 0.45 1 1 1h1c0.55 0 1-0.45 1-1V12h1V10c0-0.55-0.45-1-1-1zM7 7h1v1h-1v-1z m2 4h-1v4h-1V11h-1v-1h3v1z m2.09-3.5c0-1.98-1.61-3.59-3.59-3.59S3.91 5.52 3.91 7.5c0 0.28 0.03 0.55 0.09 0.81v1.98c-0.61-0.77-1-1.73-1-2.8 0-2.48 2.02-4.5 4.5-4.5s4.5 2.02 4.5 4.5c0 1.06-0.39 2.03-1 2.8V8.31c0.06-0.27 0.09-0.53 0.09-0.81z m3.91 0c0 2.88-1.63 5.38-4 6.63v-1.05c1.86-1.16 3.09-3.22 3.09-5.58 0-3.64-2.95-6.59-6.59-6.59S0.91 3.86 0.91 7.5c0 2.36 1.23 4.42 3.09 5.58v1.05C1.63 12.88 0 10.38 0 7.5 0 3.36 3.36 0 7.5 0s7.5 3.36 7.5 7.5z" />
</svg>

<svg xmlns="http://www.w3.org/2000/svg" width="16" height="16" viewBox="0 0 16 16"><path d="M9 9H8c.55 0 1-.45 1-1V7c0-.55-.45-1-1-1H7c-.55 0-1 .45-1 1v1c0 .55.45 1 1 1H6c-.55 0-1 .45-1 1v2h1v3c0 .55.45 1 1 1h1c.55 0 1-.45 1-1v-3h1v-2c0-.55-.45-1-1-1zM7 7h1v1H7V7zm2 4H8v4H7v-4H6v-1h3v1zm2.09-3.5c0-1.98-1.61-3.59-3.59-3.59A3.593 3.593 0 0 0 4 8.31v1.98c-.61-.77-1-1.73-1-2.8 0-2.48 2.02-4.5 4.5-4.5S12 5.01 12 7.49c0 1.06-.39 2.03-1 2.8V8.31c.06-.27.09-.53.09-.81zm3.91 0c0 2.88-1.63 5.38-4 6.63v-1.05a6.553 6.553 0 0 0 3.09-5.58A6.59 6.59 0 0 0 7.5.91 6.59 6.59 0 0 0 .91 7.5c0 2.36 1.23 4.42 3.09 5.58v1.05A7.497 7.497 0 0 1 7.5 0C11.64 0 15 3.36 15 7.5z"/></svg>
